icons/1_Primary/RMIT University.svg

<svg xmlns="http://www.w3.org/2000/svg" viewBox="0 0 1024 1024">
   <circle cx="512" cy="512" r="512" style="fill:#e60028"/>
   <path d="M517.39 261.94h-66v54.3H341.52v113H256V595h83.54v113h111v54.08h58.92C646.87 762.06 768 652.15 768 512.55c-.72-138.11-112.5-249.89-250.61-250.61Z" style="fill:#fff"/>
</svg>

<svg width="1024" height="1024" viewBox="0 0 1024 1024" fill="none" xmlns="http://www.w3.org/2000/svg">
<g clip-path="url(#clip0_2_3348)">
<path d="M512 1024C794.77 1024 1024 794.77 1024 512C1024 229.23 794.77 0 512 0C229.23 0 0 229.23 0 512C0 794.77 229.23 1024 512 1024Z" fill="#FF837D"/>
<path d="M517.39 261.94H451.39V316.24H341.52V429.24H256V595H339.54V708H450.54V762.08H509.46C646.87 762.06 768 652.15 768 512.55C767.28 374.44 655.5 262.66 517.39 261.94Z" fill="white"/>
</g>
<defs>
<clipPath id="clip0_2_3348">
<rect width="1024" height="1024" fill="white"/>
</clipPath>
</defs>
</svg>
